assets/img/ca-breast/ai.svg

<svg height="163" viewBox="0 0 352 163" width="352" xmlns="http://www.w3.org/2000/svg"><g fill="none" fill-rule="evenodd" transform="translate(0 -6)"><ellipse cx="176" cy="146" fill="#000" opacity=".204484" rx="176" ry="22"/><g transform="matrix(.99862953 .05233596 -.05233596 .99862953 135.551341 114.479777)"><path d="m.5879361 15.7358938 20.1813952-13.27007645 119.7225577-1.67528255-21.098714 15.3106627" fill="#fff" stroke="#000" stroke-width="2"/><path d="m0 15h121v5c0 1.1045695-.895431 2-2 2h-119z" fill="#ccc" fill-rule="evenodd"/><g stroke="#000" stroke-width="2"><path d="m1 16v5h118c.552285 0 1-.4477153 1-1v-4z"/><path d="m120.423786 15.7467413 19.294029-14.20984671v6.02589463c0 1.87849668-1.052897 3.59848978-2.725845 4.45288858l-16.326729 8.3383006z" fill="#000"/></g></g><path d="m275 121h29v18h-29z" fill="#000"/><path d="m277.505985 130.125463h33.494015c2.761424 0 5 2.238576 5 5v7.488994l-62.549085.053052z" fill="#000"/><path d="m308 18h22c2.761424 0 5 2.2385763 5 5v87.870969c0 2.761424-2.238576 5-5 5h-22z" fill="#ccc" stroke="#000" stroke-width="2"/><path d="m293 19.0039163h36.142073c2.174575 0 5.256892.5592304 4.848078 5.7026868-8.775099 0-22.438483 0-40.990151 0" fill="#fff"/><path d="m271 10.2999878h44.488095c3.320284 0 6.011905 2.2285992 6.011905 4.9777156v93.0891376c0 8.247349-8.074864 14.933147-18.035714 14.933147h-32.464286" fill="#ccc" stroke="#000" stroke-width="2"/><path d="m274.008721 11h40.506365c3.686771 0 5.993635.6887164 5.993635 5.7158035-9.834726 0-25.334726 0-46.5 0" fill="#fff"/><g stroke-width="2"><path d="m321.5 110c-2.616355 5.397874-8.052077 11.052747-17.672413 12.018118h-28.827587v-12.018118z" fill="#000" stroke="#000"/><path d="m333.092792 108c0 6.009059.126263 6.786733-2.949228 6.786733h-8.643564v-6.786733z" fill="#000" stroke="#000"/><path d="m282 86h27v1h-27z" stroke="#fff" stroke-linecap="round" stroke-linejoin="round"/><path d="m288 86h27v1h-27z" stroke="#000" stroke-linecap="round" stroke-linejoin="round"/><path d="m282 80h27v1h-27z" stroke="#fff" stroke-linecap="round" stroke-linejoin="round"/><path d="m288 80h27v1h-27z" stroke="#000" stroke-linecap="round" stroke-linejoin="round"/><path d="m282 93h27v1h-27z" stroke="#fff" stroke-linecap="round" stroke-linejoin="round"/><path d="m288 93h27v1h-27z" stroke="#000" stroke-linecap="round" stroke-linejoin="round"/><path d="m282 100h27v1h-27z" stroke="#fff" stroke-linecap="round" stroke-linejoin="round"/><path d="m288 100h27v1h-27z" stroke="#000" stroke-linecap="round" stroke-linejoin="round"/><path d="m162.175002 14.5775242 107.624515-4.3188471c2.759203-.1107236 5.085738 2.0362932 5.196462 4.7954962.00268.0667941.004021.1336351.004021.2004829v103.0484308c0 2.761423-2.238576 5-5 5-.082171 0-.16433-.002026-.246401-.006075l-109.75718-5.415438c-2.706625-.133546-4.814211-2.398958-4.752293-5.108169l2.132664-93.3141453c.060304-2.6385878 2.161057-4.7759096 4.798212-4.8817355z" fill="#fff" stroke="#000"/></g><path d="m178.736187 29.5057882 76.635569-4.2156368c2.757255-.1516735 5.115408 1.9605678 5.267081 4.717823.005031.0914567.007548.1830343.007548.2746292v72.2526734c0 2.761424-2.238576 5-5 5-.067486 0-.134964-.001367-.202395-.004098l-79.874949-3.2359c-2.75916-.111779-4.905286-2.439136-4.793507-5.1982965.000638-.0157505.00135-.0314979.002138-.0472417l3.23938-64.8011365c.127751-2.555555 2.164252-4.6022748 4.719135-4.7428161z" fill="#fff" fill-rule="evenodd"/><path d="m178.791113 30.5042787c-2.043906.112433-3.673107 1.7498088-3.775308 3.7942528l-3.239381 64.8011365c-.000914.018894-.000914.018894-.00171.0377934-.089423 2.2073286 1.627478 4.0692136 3.834806 4.1586366l79.874949 3.2359c.053945.002186.107927.003279.161916.003279 2.209139 0 4-1.790861 4-4v-72.2526734c0-.0732759-.002014-.146538-.006038-.2197033-.121339-2.2058042-2.007861-3.8955972-4.213666-3.7742584z" stroke="#000" stroke-width="2"/><path d="m176.673583 27.6806424h3.49357l-2.148431 76.5269756h-2.975243c-2.761424 0-5-2.238576-5-5.0000001 0-.0408306.0005-.0816596.0015-.1224778l1.630105-66.5269754c.066473-2.7128946 2.28479-4.8775223 4.998499-4.8775223z" fill="#000"/><path d="m176.676688 27.552452 78.815347-2.4341916c2.760107-.0852452 5.066722 2.0831592 5.151967 4.8432669.001588.0514347.002383.1028909.002383.1543501v1.1822127l-88.815347 2.7019099v-1.449931c0-2.7013276 2.145609-4.914227 4.84565-4.997617z" fill="#000"/><ellipse cx="155.5" cy="70.5" fill="#fff" rx="6.5" ry="11.5" stroke="#000" stroke-width="2"/><path d="m80.2762391 116.885739c22.5575329 4.613657 64.3801389 8.448839 83.2827919 0-2.707989-26.511664-12.100535-81.6256702-42.747121-79.8403706-30.6465865 1.7852996-38.2707097 53.9257249-40.5356709 79.8403706z" fill="#00f"/><path d="m44.8997445 160.15293c-34.790586-6.248169-8.5378026-50.15293 73.9543305-50.15293 82.492133 0 136.926853 53.997118 112.224823 56.401099-24.702029 2.403981-151.3885675 0-186.1791535-6.248169z" fill="#fff" stroke="#000" stroke-linecap="round" stroke-linejoin="round" stroke-width="2"/><path d="m162.167775 69.8349801c-18.96932 0-32.297731 0-39.98523 0-11.53125 0-11.711403 16.0563062 0 16.0563062" stroke="#000" stroke-width="2"/><path d="m85.2295373 11c-14.0918312 7.7655808-19.1174988 12.0185429-15.0770026 12.7588863 6.0607443 1.1105152 24.1866083-12.3694392 26.0482568-8.4621313s-20.2288905 11.2173291-20.2288905 14.4805986 12.7267888-4.9587229 18.2023754-4.9587229c5.4755867 0-9.8422114 6.5317771-8.9447391 9.881226.5983149 2.2329659 3.5798946 2.7971933 8.9447391 1.692682" stroke="#000" stroke-linecap="round" stroke-linejoin="round" stroke-width="2"/><path d="m85.7755364 8.19601118c-16.5510125 9.44077872-22.8062707 14.53133972-18.7657745 15.27168312 6.0607443 1.1105152 26.7401546-14.81708405 28.6018031-10.9097761 1.8616486 3.9073079-24.9130312 14.9464263-24.9130312 18.2096957 0 3.2632695 20.5726701-9.8127164 26.0482567-9.8127164 5.4755865 0-15.6250291 9.590397-14.7275569 12.9398459" stroke="#000" stroke-linecap="round" stroke-linejoin="round" stroke-width="2" transform="matrix(-.5 .8660254 .8660254 .5 104.381055 -60.26443)"/><path d="m215.164 78h-3.892l-1.372-4.956h-5.796l-1.344 4.956h-3.696l5.488-19.544h5.096zm-5.88-7.952-2.156-7.98h-.224l-2.156 7.98zm20.832 7.952h-12.432v-2.744h4.396v-14.056h-4.396v-2.744h12.432v2.744h-4.396v14.056h4.396z" fill="#000"/></g></svg>

<?xml version="1.0" encoding="UTF-8"?>
<svg width="352px" height="163px" viewBox="0 0 352 163" version="1.1" xmlns="http://www.w3.org/2000/svg" xmlns:xlink="http://www.w3.org/1999/xlink">
    <!-- Generator: Sketch 49.3 (51167) - http://www.bohemiancoding.com/sketch -->
    <title>ai</title>
    <desc>Created with Sketch.</desc>
    <defs>
        <path d="M0,15 L121,15 L121,20 C121,21.1045695 120.104569,22 119,22 L0,22 L0,15 Z" id="path-1"></path>
        <path d="M178.736187,29.5057882 L255.371756,25.2901514 C258.129011,25.1384779 260.487164,27.2507192 260.638837,30.0079744 C260.643868,30.0994311 260.646385,30.1910087 260.646385,30.2826036 L260.646385,102.535277 C260.646385,105.296701 258.407809,107.535277 255.646385,107.535277 C255.578899,107.535277 255.511421,107.53391 255.44399,107.531179 L175.569041,104.295279 C172.809881,104.1835 170.663755,101.856143 170.775534,99.0969825 C170.776172,99.081232 170.776884,99.0654846 170.777672,99.0497408 L174.017052,34.2486043 C174.144803,31.6930493 176.181304,29.6463295 178.736187,29.5057882 Z" id="path-2"></path>
    </defs>
    <g id="Page-1" stroke="none" stroke-width="1" fill="none" fill-rule="evenodd">
        <g id="illustrations" transform="translate(-102.000000, -573.000000)">
            <g id="ai" transform="translate(102.000000, 567.000000)">
                <ellipse id="Oval-2" fill="#000000" opacity="0.204483696" cx="176" cy="146" rx="176" ry="22"></ellipse>
                <g id="Group-15" transform="translate(205.379028, 129.154387) rotate(3.000000) translate(-205.379028, -129.154387) translate(134.879028, 118.154387)">
                    <polyline id="Path-30" stroke="#000000" stroke-width="2" fill="#FFFFFF" points="0.587936104 15.7358938 20.7693313 2.46581735 140.491889 0.790534799 119.393175 16.1011975"></polyline>
                    <g id="Rectangle-5">
                        <use fill="#CCCCCC" fill-rule="evenodd" xlink:href="#path-1"></use>
                        <path stroke="#000000" stroke-width="2" d="M1,16 L1,21 L119,21 C119.552285,21 120,20.5522847 120,20 L120,16 L1,16 Z"></path>
                    </g>
                    <path d="M120.423786,15.7467413 L139.717815,1.53689459 L139.717815,7.56278922 C139.717815,9.4412859 138.664918,11.161279 136.99197,12.0156778 L120.665241,20.3539784 L120.423786,15.7467413 Z" id="Path-29" stroke="#000000" stroke-width="2" fill="#000000"></path>
                </g>
                <rect id="Rectangle-6" fill="#000000" x="275" y="121" width="29" height="18"></rect>
                <path d="M277.505985,130.125463 L311,130.125463 C313.761424,130.125463 316,132.364039 316,135.125463 L316,142.614457 L253.450915,142.667509 L277.505985,130.125463 Z" id="Rectangle-7" fill="#000000"></path>
                <path d="M308,18 L330,18 C332.761424,18 335,20.2385763 335,23 L335,110.870969 C335,113.632393 332.761424,115.870969 330,115.870969 L308,115.870969 L308,18 Z" id="Rectangle-3-Copy" stroke="#000000" stroke-width="2" fill="#CCCCCC"></path>
                <path d="M293,19.0039163 L329.142073,19.0039163 C331.316648,19.0039163 334.398965,19.5631467 333.990151,24.7066031 C325.215052,24.7066031 311.551668,24.7066031 293,24.7066031" id="Rectangle-3-Copy-2" fill="#FFFFFF"></path>
                <path d="M271,10.2999878 L315.488095,10.2999878 C318.808379,10.2999878 321.5,12.528587 321.5,15.2777034 L321.5,108.366841 C321.5,116.61419 313.425136,123.299988 303.464286,123.299988 L271,123.299988" id="Rectangle-3" stroke="#000000" stroke-width="2" fill="#CCCCCC"></path>
                <path d="M274.008721,11 L314.515086,11 C318.201857,11 320.508721,11.6887164 320.508721,16.7158035 C310.673995,16.7158035 295.173995,16.7158035 274.008721,16.7158035" id="Rectangle-3" fill="#FFFFFF"></path>
                <path d="M321.5,110 C318.883645,115.397874 313.447923,121.052747 303.827587,122.018118 L275,122.018118 L275,110 L321.5,110 Z" id="Rectangle-3" stroke="#000000" stroke-width="2" fill="#000000"></path>
                <path d="M333.092792,108 C333.092792,114.009059 333.219055,114.786733 330.143564,114.786733 L321.5,114.786733 L321.5,108 L333.092792,108 Z" id="Rectangle-3-Copy-3" stroke="#000000" stroke-width="2" fill="#000000"></path>
                <rect id="Rectangle-4" stroke="#FFFFFF" stroke-width="2" stroke-linecap="round" stroke-linejoin="round" x="282" y="86" width="27" height="1"></rect>
                <rect id="Rectangle-4-Copy-4" stroke="#000000" stroke-width="2" stroke-linecap="round" stroke-linejoin="round" x="288" y="86" width="27" height="1"></rect>
                <rect id="Rectangle-4-Copy-3" stroke="#FFFFFF" stroke-width="2" stroke-linecap="round" stroke-linejoin="round" x="282" y="80" width="27" height="1"></rect>
                <rect id="Rectangle-4-Copy-5" stroke="#000000" stroke-width="2" stroke-linecap="round" stroke-linejoin="round" x="288" y="80" width="27" height="1"></rect>
                <rect id="Rectangle-4-Copy" stroke="#FFFFFF" stroke-width="2" stroke-linecap="round" stroke-linejoin="round" x="282" y="93" width="27" height="1"></rect>
                <rect id="Rectangle-4-Copy-6" stroke="#000000" stroke-width="2" stroke-linecap="round" stroke-linejoin="round" x="288" y="93" width="27" height="1"></rect>
                <rect id="Rectangle-4-Copy-2" stroke="#FFFFFF" stroke-width="2" stroke-linecap="round" stroke-linejoin="round" x="282" y="100" width="27" height="1"></rect>
                <rect id="Rectangle-4-Copy-7" stroke="#000000" stroke-width="2" stroke-linecap="round" stroke-linejoin="round" x="288" y="100" width="27" height="1"></rect>
                <path d="M162.175002,14.5775242 L269.799517,10.2586771 C272.55872,10.1479535 274.885255,12.2949703 274.995979,15.0541733 C274.998659,15.1209674 275,15.1878084 275,15.2546562 L275,118.303087 C275,121.06451 272.761424,123.303087 270,123.303087 C269.917829,123.303087 269.83567,123.301061 269.753599,123.297012 L159.996419,117.881574 C157.289794,117.748028 155.182208,115.482616 155.244126,112.773405 L157.37679,19.4592597 C157.437094,16.8206719 159.537847,14.6833501 162.175002,14.5775242 Z" id="Rectangle-2-Copy" stroke="#000000" stroke-width="2" fill="#FFFFFF"></path>
                <g id="Rectangle-2">
                    <use fill="#FFFFFF" fill-rule="evenodd" xlink:href="#path-2"></use>
                    <path stroke="#000000" stroke-width="2" d="M178.791113,30.5042787 C176.747207,30.6167117 175.118006,32.2540875 175.015805,34.2985315 L171.776424,99.099668 C171.77551,99.118562 171.77551,99.118562 171.774714,99.1374614 C171.685291,101.34479 173.402192,103.206675 175.60952,103.296098 L255.484469,106.531998 C255.538414,106.534184 255.592396,106.535277 255.646385,106.535277 C257.855524,106.535277 259.646385,104.744416 259.646385,102.535277 L259.646385,30.2826036 C259.646385,30.2093277 259.644371,30.1360656 259.640347,30.0629003 C259.519008,27.8570961 257.632486,26.1673031 255.426681,26.2886419 L178.791113,30.5042787 Z"></path>
                </g>
                <path d="M176.673583,27.6806424 L180.167153,27.6806424 L178.018722,104.207618 L175.043479,104.207618 C172.282055,104.207618 170.043479,101.969042 170.043479,99.2076179 C170.043479,99.1667873 170.043979,99.1259583 170.044979,99.0851401 L171.675084,32.5581647 C171.741557,29.8452701 173.959874,27.6806424 176.673583,27.6806424 Z" id="Rectangle-2" fill="#000000"></path>
                <path d="M176.676688,27.552452 L255.492035,25.1182604 C258.252142,25.0330152 260.558757,27.2014196 260.644002,29.9615273 C260.64559,30.012962 260.646385,30.0644182 260.646385,30.1158774 L260.646385,31.2980901 L171.831038,34 L171.831038,32.550069 C171.831038,29.8487414 173.976647,27.635842 176.676688,27.552452 Z" id="Rectangle-2" fill="#000000"></path>
                <ellipse id="Oval-5" stroke="#000000" stroke-width="2" fill="#FFFFFF" cx="155.5" cy="70.5" rx="6.5" ry="11.5"></ellipse>
                <path d="M80.2762391,116.885739 C102.833772,121.499396 144.656378,125.334578 163.559031,116.885739 C160.851042,90.374075 151.458496,35.2600688 120.81191,37.0453684 C90.1653235,38.830668 82.5412003,90.9710933 80.2762391,116.885739 Z" id="Path-3" fill="#0000FF"></path>
                <path d="M44.8997445,160.15293 C10.1091585,153.904761 36.3619419,110 118.854075,110 C201.346208,110 255.780928,163.997118 231.078898,166.401099 C206.376869,168.80508 79.6903305,166.401099 44.8997445,160.15293 Z" id="Path-31" stroke="#000000" stroke-width="2" fill="#FFFFFF" stroke-linecap="round" stroke-linejoin="round"></path>
                <path d="M162.167775,69.8349801 C143.198455,69.8349801 129.870044,69.8349801 122.182545,69.8349801 C110.651295,69.8349801 110.471142,85.8912863 122.182545,85.8912863" id="Path-32" stroke="#000000" stroke-width="2"></path>
                <path d="M85.2295373,11 C71.1377061,18.7655808 66.1120385,23.0185429 70.1525347,23.7588863 C76.213279,24.8694015 94.339143,11.3894471 96.2007915,15.296755 C98.06244,19.2040629 75.971901,26.5140841 75.971901,29.7773536 C75.971901,33.0406231 88.6986898,24.8186307 94.1742764,24.8186307 C99.6498631,24.8186307 84.332065,31.3504078 85.2295373,34.6998567 C85.8278522,36.9328226 88.8094319,37.49705 94.1742764,36.3925387" id="Path-33" stroke="#000000" stroke-width="2" stroke-linecap="round" stroke-linejoin="round"></path>
                <path d="M85.7755364,8.19601118 C69.2245239,17.6367899 62.9692657,22.7273509 67.0097619,23.4676943 C73.0705062,24.5782095 93.7499165,8.65061025 95.611565,12.5579182 C97.4732136,16.4652261 70.6985338,27.5043445 70.6985338,30.7676139 C70.6985338,34.0308834 91.2712039,20.9548975 96.7467905,20.9548975 C102.222377,20.9548975 81.1217614,30.5452945 82.0192336,33.8947434" id="Path-33-Copy" stroke="#000000" stroke-width="2" stroke-linecap="round" stroke-linejoin="round" transform="translate(81.737924, 21.045377) scale(-1, 1) rotate(60.000000) translate(-81.737924, -21.045377) "></path>
                <path d="M215.164,78 L211.272,78 L209.9,73.044 L204.104,73.044 L202.76,78 L199.064,78 L204.552,58.456 L209.648,58.456 L215.164,78 Z M209.284,70.048 L207.128,62.068 L206.904,62.068 L204.748,70.048 L209.284,70.048 Z M230.116,78 L217.684,78 L217.684,75.256 L222.08,75.256 L222.08,61.2 L217.684,61.2 L217.684,58.456 L230.116,58.456 L230.116,61.2 L225.72,61.2 L225.72,75.256 L230.116,75.256 L230.116,78 Z" id="AI" fill="#000000"></path>
            </g>
        </g>
    </g>
</svg>
